img/svg/setup-ico-48.svg

<svg width="48" height="48" viewBox="0 0 48 48" fill="none" xmlns="http://www.w3.org/2000/svg">
<path d="M24 18.1094C20.7519 18.1094 18.1094 20.7519 18.1094 24C18.1094 27.2481 20.7519 29.8906 24 29.8906C24.6067 29.8906 25.2053 29.7986 25.7792 29.6169C26.314 29.4477 26.6102 28.8769 26.441 28.3422C26.2717 27.8074 25.7009 27.5111 25.1662 27.6803C24.7908 27.7991 24.3985 27.8594 24 27.8594C21.872 27.8594 20.1406 26.1281 20.1406 24C20.1406 21.8719 21.872 20.1406 24 20.1406C26.128 20.1406 27.8594 21.8719 27.8594 24C27.8594 24.3698 27.8074 24.7353 27.7047 25.086C27.5473 25.6244 27.8561 26.1884 28.3945 26.3459C28.9329 26.5034 29.4969 26.1946 29.6544 25.6562C29.8112 25.1201 29.8906 24.5629 29.8906 24C29.8906 20.7519 27.2481 18.1094 24 18.1094Z" fill="#E0E0E0"/>
<path d="M33.9531 20.4454H33.4417C33.3071 20.4454 33.1852 20.3606 33.1323 20.2327L33.1233 20.2108C33.0686 20.0791 33.0948 19.9325 33.1899 19.8373L33.5516 19.4756C34.7396 18.2877 34.7396 16.3547 33.5516 15.1667L32.8334 14.4486C32.2579 13.8731 31.4928 13.5561 30.679 13.5561C29.865 13.5561 29.0999 13.8731 28.5245 14.4486L28.1628 14.8102C28.0676 14.9054 27.9209 14.9315 27.7898 14.877L27.7706 14.8691C27.6394 14.8149 27.5547 14.693 27.5547 14.5584V14.0469C27.5547 12.3668 26.1879 11 24.5079 11H23.4922C21.8122 11 20.4454 12.3668 20.4454 14.0469V14.5584C20.4454 14.693 20.3607 14.8149 20.2306 14.8686L20.2108 14.8768C20.0792 14.9315 19.9324 14.9054 19.8373 14.8102L19.4756 14.4486C18.9002 13.8731 18.135 13.5561 17.3211 13.5561C16.5073 13.5561 15.7422 13.8731 15.1667 14.4486L14.4485 15.1666C13.2605 16.3546 13.2605 18.2876 14.4486 19.4756L14.8102 19.8372C14.9053 19.9324 14.9314 20.079 14.8752 20.2145L14.8691 20.2293C14.8149 20.3605 14.6929 20.4453 14.5584 20.4453H14.0469C12.3668 20.4453 11 21.8121 11 23.4921V24.5078C11 26.1878 12.3668 27.5546 14.0469 27.5546H14.5583C14.6929 27.5546 14.8148 27.6394 14.8677 27.7673L14.8767 27.7892C14.9314 27.9209 14.9053 28.0675 14.8101 28.1627L14.4485 28.5244C13.873 29.0999 13.5561 29.865 13.5561 30.6789C13.5561 31.4927 13.873 32.2578 14.4485 32.8333L15.1666 33.5514C15.7421 34.1269 16.5073 34.4439 17.3211 34.4439C18.135 34.4439 18.9001 34.1269 19.4756 33.5514L19.8372 33.1898C19.9323 33.0946 20.0791 33.0685 20.2103 33.123L20.2294 33.1309C20.3606 33.1851 20.4453 33.307 20.4453 33.4416V33.9531C20.4453 35.6332 21.8121 37 23.4922 37H24.5078C26.1879 37 27.5547 35.6332 27.5547 33.9531V33.4416C27.5547 33.307 27.6394 33.1851 27.7694 33.1314L27.7893 33.1232C27.921 33.0686 28.0676 33.0947 28.1627 33.1898L28.5244 33.5514C29.0999 34.1269 29.865 34.4439 30.6789 34.4439C31.4928 34.4439 32.2579 34.1269 32.8334 33.5514L33.5515 32.8333C34.127 32.2578 34.4439 31.4927 34.4439 30.6789C34.4439 29.865 34.127 29.0999 33.5515 28.5244L33.1899 28.1627C33.0947 28.0676 33.0686 27.921 33.1233 27.7892L33.1309 27.7707C33.1851 27.6395 33.3071 27.5547 33.4416 27.5547H33.9531C35.6332 27.5547 37 26.1879 37 24.5079V23.4922C37 21.8122 35.6332 20.4454 33.9531 20.4454ZM34.9688 24.5078C34.9688 25.0678 34.5131 25.5234 33.9531 25.5234H33.4416C32.4816 25.5234 31.6227 26.1011 31.2535 26.9952L31.2469 27.0112C30.8763 27.9049 31.075 28.9206 31.7535 29.599L32.1152 29.9607C32.307 30.1525 32.4126 30.4076 32.4126 30.6789C32.4126 30.9501 32.307 31.2051 32.1151 31.397L31.3971 32.1151C31.2051 32.3069 30.9501 32.4126 30.6789 32.4126C30.4075 32.4126 30.1525 32.307 29.9607 32.1151L29.599 31.7534C28.9201 31.0747 27.9039 30.8761 27.0096 31.2476L26.9953 31.2535C26.1012 31.6227 25.5234 32.4815 25.5234 33.4416V33.9531C25.5234 34.5131 25.0678 34.9688 24.5078 34.9688H23.4922C22.9322 34.9688 22.4766 34.5131 22.4766 33.9531V33.4416C22.4766 32.4815 21.8988 31.6227 21.0037 31.253L20.9899 31.2473C20.6908 31.1231 20.3782 31.0627 20.0689 31.0627C19.4539 31.0627 18.8527 31.3018 18.401 31.7535L18.0393 32.1152C17.8474 32.307 17.5925 32.4126 17.3211 32.4126C17.0499 32.4126 16.7948 32.3069 16.603 32.1151L15.8849 31.397C15.693 31.2051 15.5874 30.9501 15.5874 30.6789C15.5874 30.4076 15.693 30.1525 15.8849 29.9607L16.2465 29.599C16.925 28.9206 17.1238 27.9049 16.7531 27.0112L16.7465 26.9952C16.3772 26.1011 15.5184 25.5234 14.5584 25.5234H14.0469C13.4869 25.5234 13.0312 25.0678 13.0312 24.5078V23.4922C13.0312 22.9322 13.4869 22.4766 14.0469 22.4766H14.5584C15.5184 22.4766 16.3773 21.8989 16.7479 21.0015L16.7526 20.99C17.1239 20.096 16.9253 19.0798 16.2465 18.401L15.8849 18.0393C15.4888 17.6433 15.4888 16.999 15.8849 16.603L16.6029 15.8849C16.7949 15.6931 17.0499 15.5874 17.3211 15.5874C17.5925 15.5874 17.8475 15.693 18.0393 15.8849L18.401 16.2466C19.0799 16.9253 20.0962 17.124 20.9904 16.7524L21.0047 16.7465C21.8988 16.3773 22.4766 15.5185 22.4766 14.5584V14.0469C22.4766 13.4869 22.9322 13.0312 23.4922 13.0312H24.5078C25.0678 13.0312 25.5234 13.4869 25.5234 14.0469V14.5584C25.5234 15.5185 26.1012 16.3773 26.9963 16.7469L27.0101 16.7526C27.9039 17.1238 28.9201 16.9252 29.599 16.2465L29.9607 15.8847C30.1526 15.6929 30.4075 15.5873 30.6789 15.5873C30.9501 15.5873 31.2052 15.693 31.397 15.8848L32.1151 16.6029C32.5112 16.9989 32.5112 17.6433 32.1152 18.0392L31.7535 18.401C31.0747 19.0798 30.8761 20.096 31.2459 20.9862L31.2535 21.0048C31.6228 21.8989 32.4816 22.4766 33.4416 22.4766H33.9531C34.5131 22.4766 34.9688 22.9322 34.9688 23.4922V24.5078Z" fill="#E0E0E0"/>
</svg>

<svg width="48" height="48" fill="none" xmlns="http://www.w3.org/2000/svg"><path d="M24 18.11A5.897 5.897 0 0018.11 24a5.897 5.897 0 007.67 5.617 1.016 1.016 0 10-.614-1.937A3.864 3.864 0 0120.14 24 3.864 3.864 0 0124 20.14a3.864 3.864 0 013.705 4.946 1.016 1.016 0 001.95.57A5.897 5.897 0 0024 18.11z" fill="#E0E0E0"/><path d="M33.953 20.445h-.511a.338.338 0 01-.31-.212l-.009-.022a.34.34 0 01.067-.374l.362-.361a3.05 3.05 0 000-4.31l-.719-.717a3.027 3.027 0 00-2.154-.893c-.814 0-1.58.317-2.154.893l-.362.361a.34.34 0 01-.373.067l-.02-.008a.34.34 0 01-.215-.31v-.512A3.05 3.05 0 0024.508 11h-1.016a3.05 3.05 0 00-3.047 3.047v.511a.339.339 0 01-.214.31l-.02.009a.34.34 0 01-.374-.067l-.361-.361a3.027 3.027 0 00-2.155-.893c-.814 0-1.579.317-2.154.893l-.719.718a3.05 3.05 0 000 4.309l.362.361a.342.342 0 01.065.378l-.006.014a.34.34 0 01-.31.216h-.512A3.05 3.05 0 0011 23.492v1.016a3.05 3.05 0 003.047 3.047h.511c.135 0 .257.084.31.212l.009.022a.34.34 0 01-.067.374l-.362.361a3.027 3.027 0 00-.892 2.155c0 .814.317 1.579.893 2.154l.718.718c.575.576 1.34.893 2.154.893.814 0 1.58-.317 2.155-.893l.361-.361a.34.34 0 01.373-.067l.02.008a.34.34 0 01.215.31v.512A3.05 3.05 0 0023.492 37h1.016a3.05 3.05 0 003.047-3.047v-.511c0-.135.084-.257.214-.31l.02-.009a.34.34 0 01.374.067l.361.361a3.027 3.027 0 002.155.893c.814 0 1.579-.317 2.154-.893l.718-.718c.576-.575.893-1.34.893-2.154 0-.814-.317-1.58-.893-2.155l-.361-.361a.34.34 0 01-.067-.374l.008-.018a.34.34 0 01.31-.216h.512A3.05 3.05 0 0037 24.508v-1.016a3.05 3.05 0 00-3.047-3.047zm1.016 4.063c0 .56-.456 1.015-1.016 1.015h-.511c-.96 0-1.82.578-2.189 1.472l-.006.016c-.37.894-.172 1.91.506 2.588l.362.362c.192.192.298.447.298.718 0 .271-.106.526-.298.718l-.718.718a1.01 1.01 0 01-.718.298 1.01 1.01 0 01-.718-.298l-.362-.362a2.365 2.365 0 00-2.59-.505l-.014.005a2.364 2.364 0 00-1.472 2.189v.511c0 .56-.455 1.016-1.015 1.016h-1.016c-.56 0-1.015-.456-1.015-1.016v-.511c0-.96-.578-1.82-1.473-2.189l-.014-.006a2.399 2.399 0 00-.921-.184c-.615 0-1.216.239-1.668.69l-.362.362a1.009 1.009 0 01-.718.298 1.01 1.01 0 01-.718-.298l-.718-.718a1.009 1.009 0 01-.298-.718c0-.271.106-.526.298-.718l.362-.362a2.365 2.365 0 00.506-2.588l-.006-.016a2.364 2.364 0 00-2.189-1.472h-.511c-.56 0-1.016-.455-1.016-1.015v-1.016c0-.56.456-1.015 1.016-1.015h.511c.96 0 1.82-.578 2.19-1.476l.005-.011a2.365 2.365 0 00-.506-2.589l-.362-.362a1.017 1.017 0 010-1.436l.718-.718a1.01 1.01 0 01.718-.298c.271 0 .526.106.718.298l.362.362a2.365 2.365 0 002.59.505l.014-.005a2.364 2.364 0 001.472-2.189v-.511c0-.56.455-1.016 1.015-1.016h1.016c.56 0 1.015.456 1.015 1.016v.511c0 .96.578 1.82 1.473 2.189l.014.006c.894.37 1.91.172 2.589-.506l.362-.362a1.01 1.01 0 01.718-.298c.271 0 .526.106.718.298l.718.718c.396.396.396 1.04 0 1.436l-.362.362a2.363 2.363 0 00-.507 2.585l.008.019a2.364 2.364 0 002.188 1.472h.511c.56 0 1.016.455 1.016 1.015v1.016z" fill="#E0E0E0"/></svg>
